X:1
T: Mrs. Moira Hart
C:
R:Strathspey
Q: 128
K:D
M:4/4
L:1/16
F4|:A3B AF3 D3F Ad3|f3e dB3 A4 d3=c|Bd3 G3B Ad3 F3D|E3^G Bd3 ((3c2B2A2) ((3=G2F2G2) |
A3B AF3 D3F Ad3|f3e dB3 A4 d3=c|Bd3 G3B Ad3 f3d|1((3c2d2e2) ((3A2B2c2) d4|F4:|2((3c2d2e2) ((3A2B2c2) d4 e4|
|:f3A df3 e3A ce3|f3e d3c d3A FA3|Bd3 G3B Ad3 F3D|Ee3 e3d ((3c2B2A2) ((3A2d2e2) |
f3A df3 e3A ce3|f3e d3c d3A FA3|Bd3 G3B Ad3 f3d|1((3c2d2e2) ((3A2B2c2) d4 e4:|2((3c2d2e2) ((3A2B2c2) d4||
